X: 1347
T: Clem O'Neale's Rocking Schottische
B: australian traditional tunes wiki
M:4/4
L:1/8
R: Schottische
Q: 1/4=100
K:G
V:1 
|:"G"B2B>c B>A (3GAB|"D"c2c>d c>BA2|"D7"f>g f>ed2 (3def|"G"g>f g>a b>g d>c|
B2B>c B>A (3GAB|"D"c2c>d c>BA2|f2f>g f>e (3def|"G"g2g2g2g>a||
"G"b>g d>g b>g (3deg|"C"a2e2e4|"D"a2f>g f2f>e|"G"d2g2g2d>g|
b>d g>a b>g b>g|"C"a2e2e4|"D"d2f>a f>e (3def|"G"g2g2g2G>A||
"G"B2B>A B>GD2|"C"E2c>B "Am"c>BA2|"D"f2f>e f>ed2|"G"g>f g>a "D7"b>g d>c|
"G"B2B>A B>G D>B|"D"c2c>B c>BA2|f2f2f>e (3def|"G"g2g2g2d2||
"G"G>B d>g b>g d>g|"C"a2e2e4|"D"d2f>a f2f>e|"G"d2g2g2d>B|
G>B d>g b>g d>g|"C"a2e2e2e2|"D"d2f>f f>e (3def|"G"g2g2g2||
% abcbook-tune_id 6342d53a64112697a4876300


% abcbook-boost 0
% abcbook-tablature 
% abcbook-transpose 
% abcbook-lastupdated 1665324360461
% abcbook-soundfonts 
% abcbook-repeats 1
% NFF Book 2006

